brandFactory_export/2.Regular/Ubicacion _2Regular.svg

<?xml version="1.0" encoding="UTF-8"?>
<svg width="24px" height="24px" viewBox="0 0 24 24" version="1.1" xmlns="http://www.w3.org/2000/svg" xmlns:xlink="http://www.w3.org/1999/xlink">
    <title>2.Regular/Ubicacion _2Regular</title>
    <g id="Symbols" stroke="none" stroke-width="1" fill="none" fill-rule="evenodd">
        <g id="2.Regular/Ubicacion-_2Regular" fill="#5CB615" fill-rule="nonzero">
            <path d="M12.3529412,1.44537815 C7.89915966,1.44537815 5.43865546,3.9394958 5.42518186,8.47058824 C5.41176471,12.497479 10.205042,19.3680672 12.3327731,21.8352941 C14.2689076,19.5764706 19.2941176,12.7327731 19.3076179,8.51428571 C19.3210084,3.9697479 16.8638655,1.46218487 12.3865546,1.44537815 L12.3529412,1.44537815 Z M12.3361345,23.6235294 C12.1478992,23.6235294 11.9630252,23.5462185 11.8319328,23.4117647 C10.2352941,21.7915966 3.98319328,13.6235294 3.99996618,8.46722689 C4.01680672,3.16302521 7.1394958,0 12.3529412,0 L12.389916,0 C17.6268908,0.0168067227 20.7462185,3.2 20.7294793,8.51764706 C20.7159664,14.0504202 13.8218487,22.4168067 12.8403361,23.4117647 C12.7058824,23.5462185 12.5243697,23.6235294 12.3361345,23.6235294 Z M12.3663866,6.26218487 C11.2201681,6.26218487 10.6588235,6.8302521 10.6588235,7.99327731 C10.6588235,9.15966387 11.2168067,9.72773109 12.3663866,9.72773109 C13.5159664,9.72773109 14.0739496,9.15966387 14.0739496,7.99663866 C14.0739496,6.8302521 13.512605,6.26554622 12.3663866,6.26218487 L12.3663866,6.26218487 Z M12.3663866,11.1764706 C10.4336134,11.1764706 9.23361345,9.95630252 9.23361345,7.99663866 C9.23361345,6.03697479 10.4336134,4.81680672 12.3663866,4.81680672 C14.2991597,4.81680672 15.4991597,6.03697479 15.4991597,7.99663866 C15.4991597,9.95630252 14.2991597,11.1764706 12.3663866,11.1764706 Z" id="Ubicacion-_2Regular"></path>
        </g>
    </g>
</svg>

<svg width="24" height="24" viewBox="0 0 24 24" xmlns="http://www.w3.org/2000/svg"><path d="M12.353 1.445c-4.454 0-6.914 2.494-6.928 7.026-.013 4.026 4.78 10.897 6.908 13.364 1.936-2.259 6.961-9.102 6.975-13.32.013-4.545-2.444-7.053-6.921-7.07h-.034zm-.017 22.179a.71.71 0 01-.504-.212C10.235 21.792 3.983 13.624 4 8.467 4.017 3.163 7.14 0 12.353 0h.037c5.237.017 8.356 3.2 8.34 8.518-.014 5.532-6.908 13.899-7.89 14.894a.716.716 0 01-.504.212zm.03-17.362c-1.146 0-1.707.568-1.707 1.731 0 1.167.558 1.735 1.707 1.735 1.15 0 1.708-.568 1.708-1.731 0-1.167-.561-1.731-1.708-1.735zm0 4.914c-1.932 0-3.132-1.22-3.132-3.18 0-1.959 1.2-3.18 3.132-3.18 1.933 0 3.133 1.221 3.133 3.18 0 1.96-1.2 3.18-3.133 3.18z" fill="#5CB615" fill-rule="nonzero"/></svg>
